Numix-Circle/48x48/apps/zaz.svg

<?xml version="1.0" encoding="UTF-8" standalone="no"?>
<svg
   xmlns:dc="http://purl.org/dc/elements/1.1/"
   xmlns:cc="http://creativecommons.org/ns#"
   xmlns:rdf="http://www.w3.org/1999/02/22-rdf-syntax-ns#"
   xmlns:svg="http://www.w3.org/2000/svg"
   xmlns="http://www.w3.org/2000/svg"
   xmlns:sodipodi="http://sodipodi.sourceforge.net/DTD/sodipodi-0.dtd"
   xmlns:inkscape="http://www.inkscape.org/namespaces/inkscape"
   viewBox="0 0 48 48"
   id="svg2"
   version="1.1"
   inkscape:version="0.48.4 r9939"
   width="100%"
   height="100%"
   sodipodi:docname="zaz.svg">
  <metadata
     id="metadata75">
    <rdf:RDF>
      <cc:Work
         rdf:about="">
        <dc:format>image/svg+xml</dc:format>
        <dc:type
           rdf:resource="http://purl.org/dc/dcmitype/StillImage" />
      </cc:Work>
    </rdf:RDF>
  </metadata>
  <sodipodi:namedview
     pagecolor="#ffffff"
     bordercolor="#666666"
     borderopacity="1"
     objecttolerance="10"
     gridtolerance="10"
     guidetolerance="10"
     inkscape:pageopacity="0"
     inkscape:pageshadow="2"
     inkscape:window-width="1280"
     inkscape:window-height="960"
     id="namedview73"
     showgrid="false"
     inkscape:zoom="4.9166667"
     inkscape:cx="24.40678"
     inkscape:cy="21.966102"
     inkscape:window-x="0"
     inkscape:window-y="0"
     inkscape:window-maximized="1"
     inkscape:current-layer="svg2" />
  <defs
     id="defs4">
    <linearGradient
       id="linearGradient3764"
       x1="1"
       x2="47"
       gradientUnits="userSpaceOnUse"
       gradientTransform="matrix(0,-1,1,0,-1.5e-6,47.999998)">
      <stop
         stop-color="#dbdbdb"
         stop-opacity="1"
         id="stop7" />
      <stop
         offset="1"
         stop-color="#e5e5e5"
         stop-opacity="1"
         id="stop9" />
    </linearGradient>
    <clipPath
       id="clipPath-190756915">
      <g
         transform="translate(0,-1004.3622)"
         id="g12">
        <path
           d="m -24 13 c 0 1.105 -0.672 2 -1.5 2 -0.828 0 -1.5 -0.895 -1.5 -2 0 -1.105 0.672 -2 1.5 -2 0.828 0 1.5 0.895 1.5 2 z"
           transform="matrix(15.333333,0,0,11.5,414.99999,878.8622)"
           fill="#1890d0"
           id="path14" />
      </g>
    </clipPath>
    <clipPath
       id="clipPath-202721842">
      <g
         transform="translate(0,-1004.3622)"
         id="g17">
        <path
           d="m -24 13 c 0 1.105 -0.672 2 -1.5 2 -0.828 0 -1.5 -0.895 -1.5 -2 0 -1.105 0.672 -2 1.5 -2 0.828 0 1.5 0.895 1.5 2 z"
           transform="matrix(15.333333,0,0,11.5,414.99999,878.8622)"
           fill="#1890d0"
           id="path19" />
      </g>
    </clipPath>
  </defs>
  <g
     id="g21">
    <g
       transform="translate(0,-1004.3622)"
       id="g23">
      <path
         d="m 25 1006.36 c -12.703 0 -23 10.298 -23 23 0 6.367 2.601 12.12 6.781 16.281 4.085 3.712 9.514 5.969 15.469 5.969 12.703 0 23 -10.297 23 -23 0 -5.954 -2.256 -11.384 -5.969 -15.469 -4.165 -4.181 -9.914 -6.781 -16.281 -6.781 z m 16.281 6.781 c 3.854 4.113 6.219 9.637 6.219 15.719 0 12.703 -10.297 23 -23 23 -6.081 0 -11.606 -2.364 -15.719 -6.219 4.16 4.144 9.883 6.719 16.219 6.719 12.703 0 23 -10.297 23 -23 0 -6.335 -2.575 -12.06 -6.719 -16.219 z"
         opacity="0.05"
         id="path25" />
      <path
         d="m 41.28 1013.14 c 3.712 4.085 5.969 9.514 5.969 15.469 0 12.703 -10.297 23 -23 23 -5.954 0 -11.384 -2.256 -15.469 -5.969 4.113 3.854 9.637 6.219 15.719 6.219 12.703 0 23 -10.297 23 -23 0 -6.081 -2.364 -11.606 -6.219 -15.719 z"
         opacity="0.1"
         id="path27" />
      <path
         transform="matrix(15.333333,0,0,11.5,415.24999,879.11222)"
         d="m -24 13 a 1.5 2 0 1 1 -3 0 1.5 2 0 1 1 3 0 z"
         opacity="0.2"
         id="path29" />
    </g>
  </g>
  <g
     id="g31">
    <path
       d="m 24 1 c 12.703 0 23 10.297 23 23 c 0 12.703 -10.297 23 -23 23 -12.703 0 -23 -10.297 -23 -23 0 -12.703 10.297 -23 23 -23 z"
       fill="url(#linearGradient3764)"
       fill-opacity="1"
       id="path33" />
  </g>
  <g
     id="g35" />
  <g
     id="g37">
    <g
       clip-path="url(#clipPath-190756915)"
       id="g39">
      <g
         transform="translate(0,1)"
         id="g41">
        <g
           opacity="0.1"
           id="g43">
          <!-- color: #e5e5e5 -->
          <g
             id="g45">
            <path
               d="m 0 0 l 0 34.5 c 4.863 5.504 11.574 9.05 19.19 8.219 c 8.648 -0.945 14.762 -7.883 13.5 -17.16 c -0.066 -0.211 -0.156 -0.41 -0.25 -0.594 c -0.02 -0.035 -0.012 -0.063 -0.031 -0.094 c -0.09 -0.152 -0.207 -0.273 -0.313 -0.406 c -0.039 -0.047 -0.063 -0.113 -0.094 -0.156 c -0.125 -0.133 -0.273 -0.262 -0.406 -0.375 c -0.039 -0.027 -0.066 -0.066 -0.094 -0.094 c -0.102 -0.066 -0.227 -0.098 -0.316 -0.156 c -0.102 -0.059 -0.203 -0.137 -0.316 -0.188 c -0.074 -0.035 -0.168 -0.063 -0.25 -0.094 c -0.145 -0.059 -0.273 -0.109 -0.438 -0.156 c -0.051 -0.016 -0.105 -0.047 -0.156 -0.063 c -0.285 -0.078 -0.602 -0.117 -0.906 -0.156 c -0.145 -0.02 -0.313 -0.02 -0.469 -0.031 c -0.332 -0.027 -0.656 -0.066 -1 -0.063 c -0.426 0.004 -0.855 0.047 -1.281 0.094 c -0.418 0.043 -0.82 0.082 -1.219 0.156 c -0.656 0.121 1.449 1.652 0.941 1.813 c -0.398 0.121 -1.492 -0.43 -1.75 -0.313 c -0.738 2.797 -8.06 4.574 -13.75 1.938 c -7.04 -4.04 -9.605 -15.305 -1.566 -25.344 c 0.355 -0.441 0.703 -0.863 1.066 -1.281 l -10.09 0 m 31.488 5.16 c -0.887 -0.023 -1.77 0.023 -2.688 0.125 c -8.648 0.945 -15.887 4.605 -14.625 13.875 c 1.203 3.988 7.77 5.781 9.812 4.844 c 0.738 -2.797 4.621 -8.105 10.316 -5.469 c 7.04 4.04 12.695 18.15 4.656 28.19 c -0.355 0.438 -0.703 0.863 -1.066 1.281 l 10.09 0 l 0 -34.5 c -4.27 -4.855 -10 -8.191 -16.5 -8.355 m 0.004 0"
               fill="#000"
               stroke="none"
               fill-rule="evenodd"
               fill-opacity="1"
               id="path47" />
            <path
               d="m 10.09 0 c -0.359 0.418 -0.711 0.84 -1.063 1.281 c -8.04 10.04 -5.477 21.301 1.563 25.344 c 5.691 2.637 12.668 0.172 13.406 -2.625 c -2.043 0.938 -8.609 -0.855 -9.813 -4.844 c -1.262 -9.27 5.977 -12.93 14.625 -13.875 c 7.613 -0.832 14.324 2.711 19.19 8.219 l 0 -13.5 m -24 24 c 2.039 -0.938 7.484 -2.43 8.691 1.563 c 1.262 9.273 -4.852 16.211 -13.5 17.16 c -7.613 0.832 -14.324 -2.711 -19.19 -8.219 l 0 13.5 l 37.906 0 c 0.363 -0.418 0.711 -0.84 1.066 -1.281 c 8.04 -10.04 2.383 -24.14 -4.656 -28.19 c -5.691 -2.637 -9.574 2.684 -10.316 5.48 m 0.004 -0.004"
               fill="#000"
               stroke="none"
               fill-rule="evenodd"
               fill-opacity="1"
               id="path49" />
            <path
               d="m 31.31 17.813 c -4.04 -0.02 -6.711 3.918 -7.313 6.188 c 0.348 -0.117 7.379 -2.031 8.688 1.563 c 1.262 9.273 -4.852 16.215 -13.5 17.16 c -7.613 0.832 -14.324 -2.711 -19.19 -8.219 l 0 13.5 l 37.906 0 c 0.359 -0.414 0.707 -0.84 1.063 -1.281 c 8.04 -10.04 2.383 -24.14 -4.656 -28.19 c -1.066 -0.496 -2.07 -0.715 -3 -0.719 m 0 -0.004"
               fill="#000"
               stroke="none"
               fill-rule="nonzero"
               fill-opacity="1"
               id="path51" />
            <path
               d="m 0 0 l 0 34.5 c 4.863 5.504 11.574 9.05 19.19 8.219 c 8.648 -0.945 14.762 -7.883 13.5 -17.16 c -0.066 -0.211 -0.156 -0.41 -0.25 -0.594 c -0.02 -0.035 -0.012 -0.063 -0.031 -0.094 c -0.09 -0.152 -0.207 -0.273 -0.313 -0.406 c -0.039 -0.047 -0.063 -0.113 -0.094 -0.156 c -0.125 -0.133 -0.273 -0.262 -0.406 -0.375 c -0.039 -0.027 -0.066 -0.066 -0.094 -0.094 c -0.102 -0.066 -0.227 -0.098 -0.316 -0.156 c -0.102 -0.059 -0.203 -0.137 -0.316 -0.188 c -0.074 -0.035 -0.168 -0.063 -0.25 -0.094 c -0.145 -0.059 -0.273 -0.109 -0.438 -0.156 c -0.051 -0.016 -0.105 -0.047 -0.156 -0.063 c -0.285 -0.078 -0.602 -0.117 -0.906 -0.156 c -0.145 -0.02 -0.313 -0.02 -0.469 -0.031 c -0.332 -0.027 -0.656 -0.066 -1 -0.063 c -0.426 0.004 -0.855 0.047 -1.281 0.094 c -0.418 0.043 -0.82 0.082 -1.219 0.156 c -0.754 0.305 -0.832 0.539 -1.094 0.781 c 0.008 -0.004 -0.027 -0.004 -0.031 0 c -0.008 0.004 -0.02 0.027 -0.031 0.031 c -0.734 2.793 -7.715 5.262 -13.402 2.625 c -7.04 -4.04 -9.605 -15.305 -1.566 -25.344 c 0.355 -0.441 0.703 -0.867 1.066 -1.281 l -10.09 0 m -0.008 0.004"
               fill="#000"
               stroke="none"
               fill-rule="nonzero"
               fill-opacity="1"
               id="path53" />
          </g>
        </g>
      </g>
    </g>
  </g>
  <path
     style="fill:#b0c6de;fill-opacity:1;fill-rule:evenodd;stroke:none"
     d="M 30.15625 5.15625 C 29.709875 5.177625 29.2715 5.23025 28.8125 5.28125 C 20.1645 6.22625 12.9255 9.88625 14.1875 19.15625 C 15.3905 23.14425 21.958 24.937 24 24 C 24.738 21.203 28.6175 15.89525 34.3125 18.53125 C 39.292555 21.389122 43.575767 29.288034 42.8125 37.21875 C 45.443899 33.478816 47 28.92036 47 24 C 47 17.283527 44.122406 11.236209 39.53125 7.03125 C 37.040046 5.8836414 34.34375 5.228 31.5 5.15625 C 31.0565 5.14475 30.602625 5.134875 30.15625 5.15625 z M 4.15625 12.375 C 2.157447 15.784132 1 19.762625 1 24 C 1 30.700595 3.8652808 36.733814 8.4375 40.9375 C 11.70853 42.448535 15.329395 43.139717 19.1875 42.71875 C 27.8355 41.77375 33.9495 34.8395 32.6875 25.5625 C 32.6215 25.3515 32.5315 25.15275 32.4375 24.96875 C 32.4175 24.93375 32.42525 24.906 32.40625 24.875 C 32.31625 24.723 32.19975 24.60175 32.09375 24.46875 C 32.05475 24.42175 32.031 24.3555 32 24.3125 C 31.875 24.1795 31.72675 24.0505 31.59375 23.9375 C 31.55475 23.9105 31.528 23.87175 31.5 23.84375 C 31.398 23.77775 31.2765 23.7455 31.1875 23.6875 C 31.0855 23.6285 30.988 23.551 30.875 23.5 C 30.801 23.465 30.707 23.43725 30.625 23.40625 C 30.48 23.34725 30.3525 23.297 30.1875 23.25 C 30.1365 23.234 30.08225 23.2035 30.03125 23.1875 C 29.74625 23.1095 29.429 23.07025 29.125 23.03125 C 28.98 23.01125 28.81225 23.011 28.65625 23 C 28.32425 22.973 28.00025 22.9345 27.65625 22.9375 C 27.23025 22.9415 26.801 22.98425 26.375 23.03125 C 25.957 23.07425 25.55525 23.1135 25.15625 23.1875 C 24.50025 23.3085 26.60175 24.839 26.09375 25 C 25.69575 25.121 24.60175 24.5705 24.34375 24.6875 C 23.60575 27.4845 16.28375 29.261 10.59375 26.625 C 6.1281265 24.062341 3.4564251 18.594884 4.15625 12.375 z "
     id="path61" />
  <path
     style="fill:#ed8e68;fill-opacity:1;fill-rule:evenodd;stroke:none"
     d="M 24 1 C 15.534826 1 8.1493388 5.5644411 4.15625 12.375 C 3.4555814 18.594216 6.1281265 24.060438 10.59375 26.625 C 16.28475 29.262 23.262 26.797 24 24 C 21.957 24.938 15.3915 23.14525 14.1875 19.15625 C 12.9255 9.88625 20.1645 6.22625 28.8125 5.28125 C 32.669086 4.8597763 36.29145 5.5518278 39.5625 7.0625 C 35.467005 3.2971126 30.001954 1 24 1 z M 24 24 C 26.039 23.062 31.4805 21.5695 32.6875 25.5625 C 33.9495 34.8355 27.8355 41.76975 19.1875 42.71875 C 15.330914 43.140224 11.70855 42.448172 8.4375 40.9375 C 12.532995 44.702887 17.998046 47 24 47 C 31.782189 47 38.650601 43.133942 42.8125 37.21875 C 43.575596 29.290357 39.291847 21.396196 34.3125 18.53125 C 28.6215 15.89425 24.742 21.204 24 24 z "
     id="path63" />
  <path
     style="fill:#86dd95;fill-opacity:1;fill-rule:nonzero;stroke:none"
     d="M 31.3125 17.8125 C 27.2725 17.7925 24.602 21.73 24 24 C 24.348 23.883 31.3785 21.9685 32.6875 25.5625 C 33.9495 34.8355 27.8355 41.77375 19.1875 42.71875 C 15.330914 43.140224 11.70855 42.448172 8.4375 40.9375 C 12.532995 44.702887 17.998046 47 24 47 C 31.782189 47 38.650601 43.133942 42.8125 37.21875 C 43.575596 29.290357 39.291847 21.396196 34.3125 18.53125 C 33.2465 18.03525 32.2425 17.8165 31.3125 17.8125 z "
     id="path65" />
  <path
     style="fill:#f3f275;fill-opacity:1;fill-rule:nonzero;stroke:none"
     d="M 4.15625 12.375 C 2.157447 15.784132 1 19.762625 1 24 C 1 30.700595 3.8652808 36.733814 8.4375 40.9375 C 11.70853 42.448535 15.329395 43.139717 19.1875 42.71875 C 27.8355 41.77375 33.9495 34.8395 32.6875 25.5625 C 32.6215 25.3515 32.5315 25.15275 32.4375 24.96875 C 32.4175 24.93375 32.42525 24.906 32.40625 24.875 C 32.31625 24.723 32.19975 24.60175 32.09375 24.46875 C 32.05475 24.42175 32.031 24.3555 32 24.3125 C 31.875 24.1795 31.72675 24.0505 31.59375 23.9375 C 31.55475 23.9105 31.528 23.87175 31.5 23.84375 C 31.398 23.77775 31.2765 23.7455 31.1875 23.6875 C 31.0855 23.6285 30.988 23.551 30.875 23.5 C 30.801 23.465 30.707 23.43725 30.625 23.40625 C 30.48 23.34725 30.3525 23.297 30.1875 23.25 C 30.1365 23.234 30.08225 23.2035 30.03125 23.1875 C 29.74625 23.1095 29.429 23.07025 29.125 23.03125 C 28.98 23.01125 28.81225 23.011 28.65625 23 C 28.32425 22.973 28.00025 22.9345 27.65625 22.9375 C 27.23025 22.9415 26.801 22.98425 26.375 23.03125 C 25.957 23.07425 25.55525 23.1135 25.15625 23.1875 C 24.40225 23.4925 24.3245 23.72675 24.0625 23.96875 C 24.0705 23.96475 24.03525 23.96475 24.03125 23.96875 C 24.02325 23.97275 24.011 23.996 24 24 C 23.266 26.793 16.28075 29.262 10.59375 26.625 C 6.1281265 24.062341 3.4564251 18.594884 4.15625 12.375 z "
     id="path67" />
  <g
     id="g69">
    <path
       d="m 40.03 7.531 c 3.712 4.084 5.969 9.514 5.969 15.469 0 12.703 -10.297 23 -23 23 c -5.954 0 -11.384 -2.256 -15.469 -5.969 4.178 4.291 10.01 6.969 16.469 6.969 c 12.703 0 23 -10.298 23 -23 0 -6.462 -2.677 -12.291 -6.969 -16.469 z"
       opacity="0.1"
       id="path71" />
  </g>
</svg>

<svg viewBox="0 0 48 48"><defs><linearGradient id="linearGradient3764" x1="1" x2="47" gradientUnits="userSpaceOnUse" gradientTransform="matrix(0,-1,1,0,-1.5e-6,47.999998)"><stop stop-color="#dbdbdb" stop-opacity="1"/><stop offset="1" stop-color="#e5e5e5" stop-opacity="1"/></linearGradient><clipPath id="clipPath-763330511"><g transform="translate(0,-1004.3622)"><path d="m -24 13 c 0 1.105 -0.672 2 -1.5 2 -0.828 0 -1.5 -0.895 -1.5 -2 0 -1.105 0.672 -2 1.5 -2 0.828 0 1.5 0.895 1.5 2 z" transform="matrix(15.333333,0,0,11.5,414.99999,878.8622)" fill="#1890d0"/></g></clipPath><clipPath id="clipPath-773373956"><g transform="translate(0,-1004.3622)"><path d="m -24 13 c 0 1.105 -0.672 2 -1.5 2 -0.828 0 -1.5 -0.895 -1.5 -2 0 -1.105 0.672 -2 1.5 -2 0.828 0 1.5 0.895 1.5 2 z" transform="matrix(15.333333,0,0,11.5,414.99999,878.8622)" fill="#1890d0"/></g></clipPath></defs><g><g transform="translate(0,-1004.3622)"><path d="m 25 1006.36 c -12.703 0 -23 10.298 -23 23 0 6.367 2.601 12.12 6.781 16.281 4.085 3.712 9.514 5.969 15.469 5.969 12.703 0 23 -10.297 23 -23 0 -5.954 -2.256 -11.384 -5.969 -15.469 -4.165 -4.181 -9.914 -6.781 -16.281 -6.781 z m 16.281 6.781 c 3.854 4.113 6.219 9.637 6.219 15.719 0 12.703 -10.297 23 -23 23 -6.081 0 -11.606 -2.364 -15.719 -6.219 4.16 4.144 9.883 6.719 16.219 6.719 12.703 0 23 -10.297 23 -23 0 -6.335 -2.575 -12.06 -6.719 -16.219 z" opacity="0.05"/><path d="m 41.28 1013.14 c 3.712 4.085 5.969 9.514 5.969 15.469 0 12.703 -10.297 23 -23 23 -5.954 0 -11.384 -2.256 -15.469 -5.969 4.113 3.854 9.637 6.219 15.719 6.219 12.703 0 23 -10.297 23 -23 0 -6.081 -2.364 -11.606 -6.219 -15.719 z" opacity="0.1"/><path transform="matrix(15.333333,0,0,11.5,415.24999,879.11222)" d="m -24 13 a 1.5 2 0 1 1 -3 0 1.5 2 0 1 1 3 0 z" opacity="0.2"/></g></g><g><path d="m 24 1 c 12.703 0 23 10.297 23 23 c 0 12.703 -10.297 23 -23 23 -12.703 0 -23 -10.297 -23 -23 0 -12.703 10.297 -23 23 -23 z" fill="url(#linearGradient3764)" fill-opacity="1"/></g><g/><g><g clip-path="url(#clipPath-763330511)"><g transform="translate(0,1)"><g opacity="0.1"><!-- color: #e5e5e5 --><g><path d="m 0 0 l 0 34.5 c 4.863 5.504 11.574 9.05 19.19 8.219 c 8.648 -0.945 14.762 -7.883 13.5 -17.16 c -0.066 -0.211 -0.156 -0.41 -0.25 -0.594 c -0.02 -0.035 -0.012 -0.063 -0.031 -0.094 c -0.09 -0.152 -0.207 -0.273 -0.313 -0.406 c -0.039 -0.047 -0.055 -0.113 -0.094 -0.156 c -0.125 -0.133 -0.266 -0.262 -0.406 -0.375 c -0.039 -0.027 -0.059 -0.066 -0.094 -0.094 c -0.094 -0.066 -0.219 -0.098 -0.316 -0.156 c -0.102 -0.059 -0.203 -0.137 -0.313 -0.188 c -0.078 -0.035 -0.168 -0.063 -0.25 -0.094 c -0.148 -0.059 -0.277 -0.109 -0.438 -0.156 c -0.051 -0.016 -0.102 -0.047 -0.156 -0.063 c -0.285 -0.078 -0.602 -0.117 -0.906 -0.156 c -0.145 -0.02 -0.316 -0.02 -0.469 -0.031 c -0.332 -0.027 -0.656 -0.066 -1 -0.063 c -0.426 0.004 -0.859 0.047 -1.281 0.094 c -0.418 0.043 -0.824 0.082 -1.219 0.156 c -0.656 0.121 1.449 1.652 0.938 1.813 c -0.391 0.121 -1.492 -0.43 -1.75 -0.313 c -0.738 2.797 -8.06 4.574 -13.75 1.938 c -7.04 -4.04 -9.602 -15.305 -1.563 -25.344 c 0.355 -0.441 0.703 -0.863 1.063 -1.281 l -10.09 0 m 31.496 5.16 c -0.887 -0.023 -1.773 0.023 -2.688 0.125 c -8.648 0.945 -15.887 4.605 -14.625 13.875 c 1.203 3.988 7.77 5.781 9.813 4.844 c 0.738 -2.797 4.621 -8.105 10.313 -5.469 c 7.04 4.04 12.695 18.15 4.656 28.19 c -0.352 0.438 -0.703 0.863 -1.063 1.281 l 10.09 0 l 0 -34.5 c -4.277 -4.848 -10 -8.188 -16.5 -8.348 m 0.004 0" fill="#000" stroke="none" fill-rule="evenodd" fill-opacity="1"/><path d="m 10.09 0 c -0.359 0.418 -0.711 0.84 -1.063 1.281 c -8.04 10.04 -5.477 21.301 1.563 25.344 c 5.691 2.637 12.668 0.172 13.406 -2.625 c -2.043 0.938 -8.609 -0.855 -9.813 -4.844 c -1.262 -9.27 5.977 -12.93 14.625 -13.875 c 7.613 -0.832 14.324 2.711 19.19 8.219 l 0 -13.5 m -24 24 c 2.039 -0.938 7.484 -2.43 8.688 1.563 c 1.262 9.273 -4.852 16.211 -13.5 17.16 c -7.613 0.832 -14.324 -2.711 -19.19 -8.219 l 0 13.5 l 37.906 0 c 0.363 -0.418 0.711 -0.84 1.066 -1.281 c 8.04 -10.04 2.383 -24.14 -4.656 -28.19 c -5.691 -2.637 -9.574 2.676 -10.316 5.473 m 0.004 -0.004" fill="#000" stroke="none" fill-rule="evenodd" fill-opacity="1"/><path d="m 31.31 17.813 c -4.04 -0.02 -6.711 3.918 -7.313 6.188 c 0.348 -0.117 7.379 -2.031 8.688 1.563 c 1.262 9.273 -4.852 16.215 -13.5 17.16 c -7.613 0.832 -14.324 -2.711 -19.19 -8.219 l 0 13.5 l 37.906 0 c 0.359 -0.414 0.707 -0.84 1.063 -1.281 c 8.04 -10.04 2.383 -24.14 -4.656 -28.19 c -1.066 -0.496 -2.07 -0.715 -3 -0.719 m 0 -0.004" fill="#000" stroke="none" fill-rule="nonzero" fill-opacity="1"/><path d="m 0 0 l 0 34.5 c 4.863 5.504 11.574 9.05 19.19 8.219 c 8.648 -0.945 14.762 -7.883 13.5 -17.16 c -0.066 -0.211 -0.156 -0.41 -0.25 -0.594 c -0.02 -0.035 -0.012 -0.063 -0.031 -0.094 c -0.09 -0.152 -0.207 -0.273 -0.313 -0.406 c -0.039 -0.047 -0.055 -0.113 -0.094 -0.156 c -0.125 -0.133 -0.266 -0.262 -0.406 -0.375 c -0.039 -0.027 -0.059 -0.066 -0.094 -0.094 c -0.094 -0.066 -0.219 -0.098 -0.316 -0.156 c -0.102 -0.059 -0.203 -0.137 -0.313 -0.188 c -0.078 -0.035 -0.168 -0.063 -0.25 -0.094 c -0.148 -0.059 -0.277 -0.109 -0.438 -0.156 c -0.051 -0.016 -0.102 -0.047 -0.156 -0.063 c -0.285 -0.078 -0.602 -0.117 -0.906 -0.156 c -0.145 -0.02 -0.316 -0.02 -0.469 -0.031 c -0.332 -0.027 -0.656 -0.066 -1 -0.063 c -0.426 0.004 -0.859 0.047 -1.281 0.094 c -0.418 0.043 -0.824 0.082 -1.219 0.156 c -0.754 0.305 -0.832 0.539 -1.094 0.781 c 0.008 -0.004 -0.027 -0.004 -0.031 0 c -0.008 0.004 -0.02 0.027 -0.031 0.031 c -0.738 2.793 -7.715 5.262 -13.406 2.625 c -7.04 -4.04 -9.602 -15.305 -1.563 -25.344 c 0.355 -0.441 0.703 -0.867 1.063 -1.281 l -10.09 0 m -0.004 0.004" fill="#000" stroke="none" fill-rule="nonzero" fill-opacity="1"/></g></g></g></g></g><g><g clip-path="url(#clipPath-773373956)"><!-- color: #e5e5e5 --><g><path d="m 0 0 l 0 34.5 c 4.863 5.504 11.574 9.05 19.19 8.219 c 8.648 -0.945 14.762 -7.883 13.5 -17.16 c -0.066 -0.211 -0.156 -0.41 -0.25 -0.594 c -0.02 -0.035 -0.012 -0.063 -0.031 -0.094 c -0.09 -0.152 -0.207 -0.273 -0.313 -0.406 c -0.039 -0.047 -0.055 -0.113 -0.094 -0.156 c -0.125 -0.133 -0.266 -0.262 -0.406 -0.375 c -0.039 -0.027 -0.059 -0.066 -0.094 -0.094 c -0.094 -0.066 -0.219 -0.098 -0.316 -0.156 c -0.102 -0.059 -0.203 -0.137 -0.313 -0.188 c -0.078 -0.035 -0.168 -0.063 -0.25 -0.094 c -0.148 -0.059 -0.277 -0.109 -0.438 -0.156 c -0.051 -0.016 -0.102 -0.047 -0.156 -0.063 c -0.285 -0.078 -0.602 -0.117 -0.906 -0.156 c -0.145 -0.02 -0.316 -0.02 -0.469 -0.031 c -0.332 -0.027 -0.656 -0.066 -1 -0.063 c -0.426 0.004 -0.859 0.047 -1.281 0.094 c -0.418 0.043 -0.824 0.082 -1.219 0.156 c -0.656 0.121 1.449 1.652 0.938 1.813 c -0.391 0.121 -1.492 -0.43 -1.75 -0.313 c -0.738 2.797 -8.06 4.574 -13.75 1.938 c -7.04 -4.04 -9.602 -15.305 -1.563 -25.344 c 0.355 -0.441 0.703 -0.863 1.063 -1.281 l -10.09 0 m 31.496 5.16 c -0.887 -0.023 -1.773 0.023 -2.688 0.125 c -8.648 0.945 -15.887 4.605 -14.625 13.875 c 1.203 3.988 7.77 5.781 9.813 4.844 c 0.738 -2.797 4.621 -8.105 10.313 -5.469 c 7.04 4.04 12.695 18.15 4.656 28.19 c -0.352 0.438 -0.703 0.863 -1.063 1.281 l 10.09 0 l 0 -34.5 c -4.277 -4.848 -10 -8.188 -16.5 -8.348 m 0.004 0" fill="#b0c6df" stroke="none" fill-rule="evenodd" fill-opacity="1"/><path d="m 10.09 0 c -0.359 0.418 -0.711 0.84 -1.063 1.281 c -8.04 10.04 -5.477 21.301 1.563 25.344 c 5.691 2.637 12.668 0.172 13.406 -2.625 c -2.043 0.938 -8.609 -0.855 -9.813 -4.844 c -1.262 -9.27 5.977 -12.93 14.625 -13.875 c 7.613 -0.832 14.324 2.711 19.19 8.219 l 0 -13.5 m -24 24 c 2.039 -0.938 7.484 -2.43 8.688 1.563 c 1.262 9.273 -4.852 16.211 -13.5 17.16 c -7.613 0.832 -14.324 -2.711 -19.19 -8.219 l 0 13.5 l 37.906 0 c 0.363 -0.418 0.711 -0.84 1.066 -1.281 c 8.04 -10.04 2.383 -24.14 -4.656 -28.19 c -5.691 -2.637 -9.574 2.676 -10.316 5.473 m 0.004 -0.004" fill="#ef8e68" stroke="none" fill-rule="evenodd" fill-opacity="1"/><path d="m 31.31 17.813 c -4.04 -0.02 -6.711 3.918 -7.313 6.188 c 0.348 -0.117 7.379 -2.031 8.688 1.563 c 1.262 9.273 -4.852 16.215 -13.5 17.16 c -7.613 0.832 -14.324 -2.711 -19.19 -8.219 l 0 13.5 l 37.906 0 c 0.359 -0.414 0.707 -0.84 1.063 -1.281 c 8.04 -10.04 2.383 -24.14 -4.656 -28.19 c -1.066 -0.496 -2.07 -0.715 -3 -0.719 m 0 -0.004" fill="#86dd95" stroke="none" fill-rule="nonzero" fill-opacity="1"/><path d="m 0 0 l 0 34.5 c 4.863 5.504 11.574 9.05 19.19 8.219 c 8.648 -0.945 14.762 -7.883 13.5 -17.16 c -0.066 -0.211 -0.156 -0.41 -0.25 -0.594 c -0.02 -0.035 -0.012 -0.063 -0.031 -0.094 c -0.09 -0.152 -0.207 -0.273 -0.313 -0.406 c -0.039 -0.047 -0.055 -0.113 -0.094 -0.156 c -0.125 -0.133 -0.266 -0.262 -0.406 -0.375 c -0.039 -0.027 -0.059 -0.066 -0.094 -0.094 c -0.094 -0.066 -0.219 -0.098 -0.316 -0.156 c -0.102 -0.059 -0.203 -0.137 -0.313 -0.188 c -0.078 -0.035 -0.168 -0.063 -0.25 -0.094 c -0.148 -0.059 -0.277 -0.109 -0.438 -0.156 c -0.051 -0.016 -0.102 -0.047 -0.156 -0.063 c -0.285 -0.078 -0.602 -0.117 -0.906 -0.156 c -0.145 -0.02 -0.316 -0.02 -0.469 -0.031 c -0.332 -0.027 -0.656 -0.066 -1 -0.063 c -0.426 0.004 -0.859 0.047 -1.281 0.094 c -0.418 0.043 -0.824 0.082 -1.219 0.156 c -0.754 0.305 -0.832 0.539 -1.094 0.781 c 0.008 -0.004 -0.027 -0.004 -0.031 0 c -0.008 0.004 -0.02 0.027 -0.031 0.031 c -0.738 2.793 -7.715 5.262 -13.406 2.625 c -7.04 -4.04 -9.602 -15.305 -1.563 -25.344 c 0.355 -0.441 0.703 -0.867 1.063 -1.281 l -10.09 0 m -0.004 0.004" fill="#f3f275" stroke="none" fill-rule="nonzero" fill-opacity="1"/></g></g></g><g><path d="m 40.03 7.531 c 3.712 4.084 5.969 9.514 5.969 15.469 0 12.703 -10.297 23 -23 23 c -5.954 0 -11.384 -2.256 -15.469 -5.969 4.178 4.291 10.01 6.969 16.469 6.969 c 12.703 0 23 -10.298 23 -23 0 -6.462 -2.677 -12.291 -6.969 -16.469 z" opacity="0.1"/></g></svg>
